src/components/00-materials/images-raw/Frost.svg

<svg width="96" height="96" viewBox="0 0 96 96" fill="none" xmlns="http://www.w3.org/2000/svg"><path d="M66.23 37.53l13.78 5.93M47.92 81.01l.02-9-.02 9zm0 0l.16-66.04-.16 66.04zM36.06 17.94l11.99 9.04L60.08 18l-24.02-.06zm11.99 9.04L60.08 18l-12.03 8.98zm11.89 51.06L47.95 69l-12.03 8.98 24.02.06zm-11.99-9.03l-12.03 8.97 12.03-8.97zm28.61-4.44L19.44 31.41l57.12 33.16zM16.01 43.3l13.82-5.86-1.76-14.91L16.01 43.3zm13.82-5.86l-1.76-14.91 1.76 14.91zm50.16 15.24l-13.82 5.86 1.76 14.91 12.06-20.77zm-13.82 5.86l1.76 14.91-1.76-14.91zm10.47-26.99L19.36 64.43l57.28-32.88zm-48.7 41.8l1.83-14.9-13.79-5.93 11.96 20.83zm1.83-14.9l-13.78-5.93 13.78 5.93zm38.29-35.82l-1.84 14.9 13.8 5.93-11.96-20.83z" stroke="#00008F" stroke-width="2" stroke-linecap="round" stroke-linejoin="round"/></svg>

<svg width="96" height="96" viewBox="0 0 96 96" fill="none" xmlns="http://www.w3.org/2000/svg">
<path d="M66.23 37.53L80.01 43.46M47.92 81.01L47.94 72.01L47.92 81.01ZM47.92 81.01L48.08 14.97L47.92 81.01ZM36.06 17.94L48.05 26.98L60.08 18L36.06 17.94ZM48.05 26.98L60.08 18L48.05 26.98ZM59.94 78.04L47.95 69L35.92 77.98L59.94 78.04ZM47.95 69.01L35.92 77.98L47.95 69.01ZM76.56 64.57L19.44 31.41L76.56 64.57ZM16.01 43.3L29.83 37.44L28.07 22.53L16.01 43.3ZM29.83 37.44L28.07 22.53L29.83 37.44ZM79.99 52.68L66.17 58.54L67.93 73.45L79.99 52.68ZM66.17 58.54L67.93 73.45L66.17 58.54ZM76.64 31.55L19.36 64.43L76.64 31.55ZM27.94 73.35L29.77 58.45L15.98 52.52L27.94 73.35ZM29.77 58.45L15.99 52.52L29.77 58.45ZM68.06 22.63L66.22 37.53L80.02 43.46L68.06 22.63Z" stroke="#00008F" stroke-width="2" stroke-linecap="round" stroke-linejoin="round"/>
</svg>
